X:1
T:Lady Arbuthnot's Favorite
T:Lady Arbuthnot's Favorite
T:Robert Petrie
C:Robert Petrie
L:1/8
Q:1/4=120
M:2/2
K:D
V:1 treble 
V:1
"^Slowish" (D<F)F>G | A>F d>B | A>F (G/F/E/D/) (C<E) [CE]2 | (D<F)F>G (A/d/c/d/) (e/d/c/B) | %4
 A>F G>E (F<D) D2 :| d>fc>A B>dA>F | (G/A/).B/.A/ (G/F/).E/.D/ (C<E) [CE]2 | d>fc>A B>dA>F | %8
 TE>D E/F/G/E/ F<DD>A | (d/e/).f/.d/ (d/c/).B/.A/ (B/c/)d/c/ (B/A/).G/.F/ | %10
 (G/A/).B/.A/ (G/F/).E/.D/ (C<E) [CE]2 | (D<F)F>G (A/d/c/d/) (e/d/c/B/) | A>F G>E (F>D) D2 || %13

